X: 5743
T: Caherconnell
R: jig
M: 6/8
K: Adorian
B|:cBA eBd|cAG A2B|cBc efg|dBG GAB|
cBA eBd|cea ~e2d|cBA ^GAB|1 cAA A2B:|2 cAA A2a||
aba ~e2d|cAA A2B|cBc efg|dBG G2a|
aba ~e2d|cBA ~e2d|cBA ^GAB|cAA A2a|
aba ~e2d|cAA A2B|cBc efg|dBG Geg|
aeg fdB|ecA BGE|ABc eBd|cAG A2B||

